X:1
T:Title
%%score { ( 1 4 ) | ( 2 3 ) }
L:1/8
M:3/4
K:F
V:1 treble nm="Grand Piano"
V:4 treble 
V:2 bass 
V:3 bass 
V:1
 z2 z2[Q:1/4=100] [CA]2 | C3 D FA |[M:7/8] [Ec]>E E3 C2 |[M:3/4] B3 B AE |[M:7/8] G>F F3 [CA]2 | %5
[M:3/4] C3 F A[Cc] |[M:13/16] [Dc]>[DB][B,D]3/2[CE][CF][DG] |[M:6/8] A<CB A<AG |[M:5/8] F-F- F3 | %9
[M:1/8] c |[M:3/4] E>E EE AG | F6 | c2- [Fc-] [Gc]2 [Ed] | c6 |[M:1/8] c | %15
[M:3/4] E>E E[G,CE] [EA][B,EG] |[M:7/8] [A,DF]2 [DG] [^CEA]3 F/-[Fd]/ |[M:3/4] [Fc]>F B A2 G | %18
[M:5/8] F-F- F3 |] %19
V:2
 z2 z2 [F,,F,]2 | [F,A,]3 [F,A,C] [F,A,C][F,CF] |[M:7/8] [C,G,B,]>[C,B,C] [C,B,C]3 [C,B,]2 | %3
[M:3/4] [C,G,C]3 [C,G,C] [C,F,C][C,B,C] |[M:7/8] [F,B,C]>[F,A,C] [F,A,C]3 [F,,F,]2 | %5
[M:3/4] [F,A,]3 [F,A,C] [F,C][A,,F,] |[M:13/16] [B,,F,]>[B,,F,][B,,F,]3/2[B,,F,][A,,F,][B,,F,] | %7
[M:6/8] [C,F,C]<[C,A,][C,G,C] [C,F,C]<[C,F,C][C,B,C] |[M:5/8] [F,A,C]-[F,A,C]- [F,A,C]3 | %9
[M:1/8] [F,A,F] |[M:3/4] [G,B,C]>[C,G,B,C] [C,G,B,C][G,C] [CE][C,B,C] | %11
 [F,A,C]2 [F,B,] [F,A,]2 [F,A,] | [C,G,]2 [C,A,] [C,B,]2 [C,B,] | [F,A,F]2 [F,D] [F,C]3 | %14
[M:1/8] [F,A,F] |[M:3/4] [G,B,C]>[C,G,B,C] .[C,G,B,C]2 CC, |[M:7/8] D,2 B,, A,,3 z/ B,/ | %17
[M:3/4] [C,A,]>[C,A,C] [C,G,C] [C,F,C]2 [C,B,C] |[M:5/8] [F,A,C]-[F,A,C]- [F,A,C]3 |] %19
V:3
 x6 | x6 |[M:7/8] x7 |[M:3/4] x6 |[M:7/8] x7 |[M:3/4] x6 |[M:13/16] x13/2 |[M:6/8] x6 |[M:5/8] x5 | %9
[M:1/8] x |[M:3/4] z2 z .C,3 | x6 | x6 | x6 |[M:1/8] x |[M:3/4] z2 z .C,3 |[M:7/8] z z z z z2 B,, | %17
[M:3/4] x6 |[M:5/8] x5 |] %19
V:4
 x6 | x6 |[M:7/8] x7 |[M:3/4] x6 |[M:7/8] x7 |[M:3/4] x6 |[M:13/16] x13/2 |[M:6/8] x6 |[M:5/8] x5 | %9
[M:1/8] x |[M:3/4] x6 | z2 D C2 C | E2 z2 z2 | z2 B A3 |[M:1/8] x |[M:3/4] x6 | %16
[M:7/8] z z z z z2 .[DG] |[M:3/4] x6 |[M:5/8] x5 |] %19

